web/ui/src/assets/svgs/index/secret-key-btn.svg

<svg height="56" viewBox="0 0 56 56" width="56" xmlns="http://www.w3.org/2000/svg"><g fill="none" fill-rule="evenodd"><circle cx="28" cy="28" fill="#e6fedc" r="28"/><g fill-rule="nonzero"><path d="m7 7h42.810811v42.810811h-42.810811z" fill="#000" opacity="0"/><path d="m34.5283859 12c-5.7868898 0-10.5021334 4.7152436-10.5021334 10.5021334 0 .6906165.0714431 1.3812329.2143293 2.0718494l.0952574.5001016-12.3358392 12.3358392v7.382452h8.6207988v-4.286585h4.0246271v-4.0246271h3.9769984v-4.0484414h1.3574186v-.3810298l1.2383467.4048441c1.0478319.3572155 2.1671069.523916 3.2625676.523916 5.7868898 0 10.5021333-4.7152436 10.5021333-10.5021334.0476288-5.7630754-4.6676148-10.478319-10.4545046-10.478319zm3.9293696 8.7874994c0 1.2145324-1.0002032 2.2147356-2.2147356 2.2147356s-2.2147356-1.0002032-2.2147356-2.2147356c0-1.2145325 1.0002032-2.2147357 2.2147356-2.2147357s2.2147356.9763889 2.2147356 2.2147357z" fill="#389e0d"/></g></g></svg>

<?xml version="1.0" encoding="UTF-8"?>
<svg width="56px" height="56px" viewBox="0 0 56 56" version="1.1" xmlns="http://www.w3.org/2000/svg" xmlns:xlink="http://www.w3.org/1999/xlink">
    <title>钥匙</title>
    <g id="页面-1" stroke="none" stroke-width="1" fill="none" fill-rule="evenodd">
        <g id="建木CI-图形编辑器入口备份-3" transform="translate(-1684.000000, -104.000000)">
            <g id="钥匙" transform="translate(1684.000000, 104.000000)">
                <circle id="椭圆形备份" fill="#E6FEDC" cx="28" cy="28" r="28"></circle>
                <rect id="矩形" fill="#000000" fill-rule="nonzero" opacity="0" x="7" y="7" width="42.8108108" height="42.8108108"></rect>
                <path d="M34.5283859,12 C28.7414961,12 24.0262525,16.7152436 24.0262525,22.5021334 C24.0262525,23.1927499 24.0976956,23.8833663 24.2405818,24.5739828 L24.3358392,25.0740844 L12,37.4099236 L12,44.7923756 L20.6207988,44.7923756 L20.6207988,40.5057906 L24.6454259,40.5057906 L24.6454259,36.4811635 L28.6224243,36.4811635 L28.6224243,32.4327221 L29.9798429,32.4327221 L29.9798429,32.0516923 L31.2181896,32.4565364 C32.2660215,32.8137519 33.3852965,32.9804524 34.4807572,32.9804524 C40.267647,32.9804524 44.9828905,28.2652088 44.9828905,22.478319 C45.0305193,16.7152436 40.3152757,12 34.5283859,12 L34.5283859,12 Z M38.4577555,20.7874994 C38.4577555,22.0020318 37.4575523,23.002235 36.2430199,23.002235 C35.0284875,23.002235 34.0282843,22.0020318 34.0282843,20.7874994 C34.0282843,19.5729669 35.0284875,18.5727637 36.2430199,18.5727637 C37.4575523,18.5727637 38.4577555,19.5491526 38.4577555,20.7874994 Z" id="形状" fill="#389E0D" fill-rule="nonzero"></path>
            </g>
        </g>
    </g>
</svg>
